X:264
T:Steirer (62.)
C:traditionell
A:Salzkammergut
S:MIDI erhalten von Christian Amon. Nach einer kopie im besitz von Johann Stoeckl eines manuscriptes. Stoeckl(zitiert von Amon): "diese sammlung wurde 1935 im hause der familie Hohenlohe-Schillingfuerst gefunden. Sie wurde von einem der beiden brueder Steinegger 1866 verfasst. Die originale sind im Ausseer Kammerhofmuseum".
M:3/4
L:1/8
K:G
V:1
{d}dg Bc gf | eg ce ag | fc' df c'f | gb dg Bc |\
dg Bc gf | eg ce ag | fc' df c'f | g4 z2 |*
V:2
{B}Bd GB dB | ce Ac fe | da Ad ad | dg Bd GA |\
BD GB dB | ce Ac fe | da Ad ad | B4 z2 |*
